build/assets/img/svg/icon-sale.svg

<svg width="48" height="48" viewBox="0 0 48 48" fill="none" xmlns="http://www.w3.org/2000/svg">
<path d="M26.5017 32.4099C23.7017 33.0099 21.5016 32.6599 20.7516 32.4099V34.66C23.5517 36.26 25.7517 35.3267 26.5017 34.66V32.4099Z" fill="#C43B55"/>
<path d="M18.2513 29.1598L15.7512 24.9097C21.7514 27.1097 29.3349 25.9097 32.0016 24.9097L29.0015 29.1598C24.2014 30.5598 19.8347 29.7431 18.2513 29.1598Z" fill="#C43B55"/>
<path d="M10.9996 18.1597L13.2497 21.6598C17.4498 24.0598 28.5001 23.4098 33.2502 22.4098L36.7503 17.6597C27.15 21.6598 15.5831 19.6597 10.9996 18.1597Z" fill="#C43B55"/>
<path fill-rule="evenodd" clip-rule="evenodd" d="M23.5298 12.9836C22.7824 12.9836 22.049 12.9991 21.3339 13.0289C21.0621 13.0402 20.8326 12.8294 20.8213 12.558C20.8099 12.2866 21.021 12.0575 21.2928 12.0461C22.0217 12.0158 22.7688 12 23.5298 12C27.4357 12 30.9892 12.4155 33.5809 13.0965C34.8732 13.436 35.9543 13.8487 36.7241 14.3269C37.4676 14.7888 38.0595 15.402 38.0595 16.1802C38.0595 16.9584 37.4676 17.5715 36.7241 18.0334C35.9543 18.5116 34.8732 18.9243 33.5809 19.2639C30.9892 19.9449 27.4357 20.3604 23.5298 20.3604C19.6238 20.3604 16.0704 19.9449 13.4786 19.2639C12.1864 18.9243 11.1052 18.5116 10.3355 18.0334C9.59192 17.5715 9 16.9584 9 16.1802C9 15.5502 9.39178 15.0286 9.91482 14.6191C10.4449 14.204 11.1873 13.8397 12.0748 13.5246C13.8552 12.8926 16.3326 12.4198 19.1785 12.1788C19.4495 12.1559 19.6879 12.3567 19.7109 12.6273C19.7339 12.898 19.5328 13.136 19.2617 13.1589C16.4635 13.3958 14.0771 13.8577 12.4048 14.4514C11.5659 14.7492 10.9347 15.0704 10.5227 15.393C10.1037 15.7211 9.98507 15.9892 9.98507 16.1802C9.98507 16.4205 10.1787 16.7777 10.8558 17.1983C11.5067 17.6027 12.4813 17.9848 13.7293 18.3127C16.218 18.9666 19.6832 19.3768 23.5298 19.3768C27.3763 19.3768 30.8415 18.9666 33.3302 18.3127C34.5782 17.9848 35.5528 17.6027 36.2037 17.1983C36.8808 16.7777 37.0745 16.4205 37.0745 16.1802C37.0745 15.9398 36.8808 15.5827 36.2037 15.1621C35.5528 14.7577 34.5782 14.3756 33.3302 14.0477C30.8415 13.3938 27.3763 12.9836 23.5298 12.9836Z" fill="black"/>
<path fill-rule="evenodd" clip-rule="evenodd" d="M37.1025 17.0006C37.3285 17.1517 37.3891 17.4572 37.2378 17.6829L27.101 32.8041V34.0801C27.101 34.8299 26.6097 35.5247 25.8467 35.7118C24.253 36.1028 23.0554 36.0899 21.4727 35.7086C20.7054 35.5238 20.2055 34.8274 20.2055 34.0706V33.05L10.0686 17.9288C9.91732 17.7031 9.97791 17.3976 10.204 17.2465C10.43 17.0954 10.7359 17.1559 10.8872 17.3817L21.1073 32.627C21.1616 32.708 21.1906 32.8032 21.1906 32.9006V34.0706C21.1906 34.4047 21.4088 34.6815 21.7037 34.7525C23.1399 35.0985 24.1775 35.1085 25.6117 34.7567C25.901 34.6857 26.1159 34.4122 26.1159 34.0801V32.6547C26.1159 32.5573 26.1449 32.4621 26.1991 32.3811L36.4192 17.1358C36.5705 16.9101 36.8764 16.8496 37.1025 17.0006Z" fill="black"/>
<path fill-rule="evenodd" clip-rule="evenodd" d="M34.167 21.5781C34.3096 21.8094 34.2373 22.1123 34.0057 22.2547C33.1231 22.797 31.7465 23.2014 30.1353 23.4789C28.5097 23.7589 26.5937 23.918 24.5952 23.9413C20.61 23.9877 16.2293 23.4946 13.1293 22.2944L13.4854 21.3773C16.419 22.5131 20.6575 23.0035 24.5837 22.9578C26.5409 22.935 28.4036 22.779 29.9679 22.5096C31.5467 22.2377 32.7713 21.8583 33.4894 21.417C33.7211 21.2747 34.0244 21.3468 34.167 21.5781ZM15.3028 25.2458C15.3888 24.9881 15.6677 24.8489 15.9258 24.9348C19.5225 26.1318 23.626 26.4151 27.6362 25.7751C27.9049 25.7323 28.1574 25.9149 28.2003 26.1831C28.2433 26.4513 28.0603 26.7035 27.7917 26.7464C23.6395 27.409 19.3746 27.1194 15.6143 25.8679C15.3562 25.782 15.2167 25.5035 15.3028 25.2458ZM31.8785 25.2559C31.9589 25.5154 31.8135 25.7908 31.5536 25.8711C30.9326 26.063 30.3048 26.2323 29.6724 26.3789C29.4074 26.4403 29.1427 26.2756 29.0812 26.0111C29.0197 25.7465 29.1846 25.4822 29.4496 25.4208C30.0592 25.2795 30.6642 25.1164 31.2624 24.9315C31.5222 24.8512 31.7981 24.9964 31.8785 25.2559ZM23.9468 30.273C21.8769 30.2888 19.6594 29.9424 17.6855 29.1795L18.0411 28.2622C19.8843 28.9747 21.9765 29.3045 23.9393 29.2895C25.9076 29.2745 27.7048 28.9133 28.9713 28.281L29.4119 29.1607C27.9694 29.8809 26.011 30.2573 23.9468 30.273ZM21.8362 33.3033C21.1738 33.1796 20.5442 32.9881 19.9945 32.732L20.4111 31.8407C20.8732 32.056 21.4214 32.2252 22.0172 32.3364C22.2846 32.3864 22.4608 32.6433 22.4108 32.9102C22.3608 33.1772 22.1035 33.3532 21.8362 33.3033ZM27.1955 32.7262C26.081 33.2825 24.7074 33.5023 23.391 33.4667C23.1191 33.4594 22.9046 33.2333 22.912 32.9618C22.9193 32.6903 23.1457 32.4762 23.4176 32.4835C24.6223 32.5161 25.8243 32.311 26.7549 31.8464L27.1955 32.7262Z" fill="black"/>
</svg>

<svg width="48" height="48" fill="none" xmlns="http://www.w3.org/2000/svg"><path d="M26.502 32.41c-2.8.6-5 .25-5.75 0v2.25c2.8 1.6 5 .667 5.75 0v-2.25zm-8.251-3.25l-2.5-4.25c6 2.2 13.584 1 16.25 0l-3 4.25c-4.8 1.4-9.166.583-10.75 0zM11 18.16l2.25 3.5c4.2 2.4 15.25 1.75 20 .75l3.5-4.75c-9.6 4-21.167 2-25.75.5z" fill="#C43B55"/><path fill-rule="evenodd" clip-rule="evenodd" d="M23.53 12.984c-.748 0-1.481.015-2.196.045a.492.492 0 11-.041-.983A53.91 53.91 0 0123.53 12c3.906 0 7.46.415 10.05 1.097 1.293.339 2.374.752 3.144 1.23.744.462 1.336 1.075 1.336 1.853s-.592 1.392-1.336 1.853c-.77.479-1.85.891-3.143 1.23-2.592.682-6.145 1.097-10.051 1.097-3.906 0-7.46-.415-10.051-1.096-1.293-.34-2.374-.752-3.143-1.23C9.591 17.571 9 16.957 9 16.18c0-.63.392-1.151.915-1.56.53-.416 1.272-.78 2.16-1.095 1.78-.632 4.258-1.105 7.104-1.346a.492.492 0 11.083.98c-2.799.237-5.185.699-6.857 1.292-.84.298-1.47.62-1.882.942-.42.328-.538.596-.538.787 0 .24.194.598.87 1.018.652.405 1.626.787 2.874 1.115 2.489.654 5.954 1.064 9.8 1.064 3.847 0 7.313-.41 9.801-1.064 1.248-.328 2.223-.71 2.874-1.115.677-.42.87-.777.87-1.018 0-.24-.193-.597-.87-1.018-.651-.404-1.626-.786-2.874-1.114-2.488-.654-5.954-1.064-9.8-1.064z" fill="#000"/><path fill-rule="evenodd" clip-rule="evenodd" d="M37.102 17a.491.491 0 01.136.683L27.1 32.804v1.276c0 .75-.491 1.445-1.254 1.632-1.594.39-2.792.378-4.374-.003-.768-.185-1.267-.882-1.267-1.638V33.05L10.069 17.929a.491.491 0 11.818-.547l10.22 15.245a.491.491 0 01.084.274v1.17c0 .334.218.61.513.681 1.436.346 2.473.356 3.908.005a.684.684 0 00.504-.677v-1.425c0-.098.029-.193.083-.274l10.22-15.245a.493.493 0 01.684-.135z" fill="#000"/><path fill-rule="evenodd" clip-rule="evenodd" d="M34.167 21.578a.491.491 0 01-.161.677c-.883.542-2.26.946-3.87 1.224-1.626.28-3.542.439-5.54.462-3.986.047-8.367-.446-11.467-1.647l.356-.917c2.934 1.136 7.172 1.627 11.099 1.58 1.957-.022 3.82-.178 5.384-.447 1.579-.272 2.803-.652 3.521-1.093a.493.493 0 01.678.161zm-18.864 3.668a.493.493 0 01.623-.311c3.597 1.197 7.7 1.48 11.71.84a.492.492 0 11.156.971c-4.152.663-8.417.373-12.178-.878a.492.492 0 01-.311-.622zm16.575.01a.492.492 0 01-.324.615 27.36 27.36 0 01-1.882.508.493.493 0 01-.222-.958c.61-.142 1.214-.305 1.812-.49.26-.08.536.065.616.325zm-7.931 5.017c-2.07.016-4.288-.33-6.261-1.093l.355-.918c1.843.713 3.936 1.043 5.898 1.027 1.969-.015 3.766-.376 5.032-1.008l.44.88c-1.442.72-3.4 1.096-5.464 1.112zm-2.11 3.03a7.778 7.778 0 01-1.843-.571l.417-.891c.462.215 1.01.384 1.606.495a.492.492 0 11-.18.967zm5.358-.577c-1.114.556-2.488.776-3.804.74a.492.492 0 11.027-.983c1.204.033 2.406-.172 3.337-.637l.44.88z" fill="#000"/></svg>
